packages/icons/src/shield-check.svg

<svg width="24" height="24" viewBox="0 0 24 24" fill="none" xmlns="http://www.w3.org/2000/svg">
<path d="M7.40002 12L10.94 15.54L16.58 9.87997L15.17 8.46997L10.93 12.71L8.81002 10.59L7.40002 12Z" fill="black"/>
<path fill-rule="evenodd" clip-rule="evenodd" d="M12 2C16 2 20 4 20 4V14.09C20 18 15.17 21 12 22C8.81 21 4 18 4 14.09V4C4 4 8 2 12 2ZM15.8931 17.6126C14.7116 18.6174 13.2501 19.408 11.9981 19.8836C10.7409 19.4084 9.27985 18.618 8.10053 17.6136C6.69412 16.4158 6 15.1942 6 14.09V5.30977C6.32341 5.18178 6.70572 5.03961 7.13246 4.89737C8.53263 4.43064 10.3025 4 12 4C13.6975 4 15.4674 4.43064 16.8675 4.89737C17.2943 5.03961 17.6766 5.18178 18 5.30977V14.09C18 15.1913 17.3042 16.4127 15.8931 17.6126Z" fill="black"/>
</svg>

<svg xmlns="http://www.w3.org/2000/svg" width="24" height="24" fill="none" viewBox="0 0 24 24">
  <path fill="#000" d="m7.4 12 3.54 3.54 5.64-5.66-1.41-1.41-4.24 4.24-2.12-2.12L7.4 12Z"/>
  <path fill="#000" fill-rule="evenodd" d="M12 2c4 0 8 2 8 2v10.09C20 18 15.17 21 12 22c-3.19-1-8-4-8-7.91V4s4-2 8-2Zm3.893 15.613c-1.181 1.004-2.643 1.795-3.895 2.27-1.257-.475-2.718-1.265-3.897-2.27C6.694 16.417 6 15.195 6 14.09V5.31c.323-.128.706-.27 1.132-.413C8.532 4.431 10.302 4 12 4c1.697 0 3.467.43 4.867.897.427.143.81.285 1.133.413v8.78c0 1.101-.696 2.323-2.107 3.523Z" clip-rule="evenodd"/>
</svg>
